X:1
T:Title
%%score ( 1 2 ) { 3 | 4 }
L:1/8
Q:1/4=95
M:4/4
K:Ab
V:1 treble nm="Grand Piano, Soprano"
V:2 treble 
V:3 bass nm="Choir Pad, Easter Bells (Camp)"
V:4 bass 
V:1
 [CE]3 [CE] [DE]3 [DE] | [DE][D=E][DF][DG] [DF]2 [C_E]2 | [CE]3 [CE] [CE]3 [CE] | z4 B2 z2 | %4
w: By~Pauline~Frances~Camp,~1912 * * *||||
 [CE]3 [CE] [DE]3 [DE] | [DE][D=E][DF][DG] [DF]2 [C_E]2 | [Ec]>[Ec] [Ec][Ec] [Ec][EB][EG][FA] | %7
w: |||
 [EG][=DF][_D=E][=DF] [_DB]4 | [Ec]>[CF] [CF][CG] [CG][CA] [CA]2 | %9
w: ||
 [Ec]>[Ec] [Fd][Ec] [=Dc]2 [DB]2 | [DB]>[DF] [DF][DG] [DG][EA][GB][Ac] | [Ge][Gd][EB][E_c] [E=c]4 | %12
w: |||
 [Ec]>[CF] [CF][CG] [CG][CA] [CA]2 | [Ec]>[Ec] [Fd][Ec] [=Dc]2 [DB]2 | %14
w: ||
 [FA]>[FA] [FG][FA] [Ee][Ae][Ae][Fd] | [Ec][DB][CA][DG] [CA]4- | [CA]4 z4 |] %17
w: |||
V:2
 x8 | x8 | x8 | [B,E][B,E][=DF][DB] _D2- [DE]2 | x8 | x8 | x8 | x8 | x8 | x8 | x8 | x8 | x8 | x8 | %14
 x8 | x8 | x8 |] %17
V:3
 A,3 A, G,3 G, | G,G,G,G, A,2 A,2 | A,3 A, _G,3 G, | G,G,A,A, G,4 | A,3 A, G,3 G, | %5
 G,G,G,G, A,2 A,2 | _G,>G, G,G, =G,G,B,B, | B,B,G,A, G,4 | A,>A, A,E, E,E, A,2 | %9
 =A,>A, A,A, _A,2 A,2 | G,>G, G,B, B,[K:treble]CDC | B,B,[K:bass]G,G, A,4 | A,>A, A,E, E,E, A,2 | %13
 =A,>A, A,A, _A,2 A,2 | A,>A, A,A, A,_C=CA, | A,G,A,B, A,4- | A,4 z4 |] %17
V:4
 A,,3 A,, B,,3 B,, | E,E,E,E, A,,2 A,,2 | A,,3 A,, =A,,3 A,, | B,,B,,B,,B,, E,4 | %4
 A,,3 A,, B,,3 B,, | E,E,E,E, A,,2 A,,2 | =A,,>A,, A,,A,, B,,B,,B,,B,, | B,,B,,B,,B,, [E,,E,]4 | %8
 A,,>A,, A,,A,, A,,A,, A,,2 | F,>F, F,F, B,,2 B,,2 | E,>E, E,E, E,E,E,E, | E,E,E,E, z4 | %12
 A,,>A,, A,,A,, A,,A,, A,,2 | F,>F, F,F, B,,2 B,,2 | _C,>C, C,C, =C,E,A,D, | E,E,E,E, A,,4- | %16
 A,,4 z4 |] %17

